Hatter-kde/actions/24/games-hint.svg

<svg xmlns="http://www.w3.org/2000/svg" viewBox="0 0 24 24">
  <defs id="defs3051">
    <style type="text/css" id="current-color-scheme">
      .ColorScheme-Text {
        color:#363636;
      }
      </style>
  </defs>
 <path style="fill:currentColor;fill-opacity:1;stroke:none" 
     d="M 12 4 L 12 4.0019531 C 9.00044 4.0019531 7.5 5.9881406 7.5 8.4003906 C 7.5 10.999757 10.414062 16 10.414062 16 L 13.585938 15.996094 C 13.585938 15.996094 16.5 10.999751 16.5 8.4003906 C 16.5 5.9881586 15.00044 4 12 4 z M 12 5.0019531 C 14.33368 5.0019531 15.5 6.6577085 15.5 8.6679688 C 15.5 10.834169 13.234375 14.998047 13.234375 14.998047 L 10.765625 15.001953 C 10.765625 15.001953 8.5 10.834169 8.5 8.6679688 C 8.5 6.6576788 9.66702 5.0039064 12 5.0039062 L 12 5.0019531 z M 10 17 L 10 18.5 C 10 19.331 10.669 20 11.5 20 L 12.5 20 C 13.331 20 14 19.331 14 18.5 L 14 17 L 12.5 17 L 11.5 17 L 10 17 z "
     class="ColorScheme-Text"
     />
</svg>

<?xml version="1.0" encoding="UTF-8"?>
<svg viewBox="0 0 24 24" xmlns="http://www.w3.org/2000/svg">
 <defs id="defs3051">
  <style id="current-color-scheme" type="text/css">.ColorScheme-Text {
        color:#363636;
      }</style>
 </defs>
 <path class="ColorScheme-Text" d="m12 4v0.0019531c-2.9996 0-4.5 1.9862-4.5 4.3984 0 2.5994 2.9141 7.5996 2.9141 7.5996l3.1719-0.003906s2.9141-4.9963 2.9141-7.5957c0-2.4122-1.4996-4.4004-4.5-4.4004zm0 1.002c2.3337 0 3.5 1.6558 3.5 3.666 0 2.1662-2.2656 6.3301-2.2656 6.3301l-2.4688 0.003906s-2.2656-4.1678-2.2656-6.334c0-2.0103 1.167-3.6641 3.5-3.6641v-0.0019531zm-2 11.998v1.5c0 0.831 0.669 1.5 1.5 1.5h1c0.831 0 1.5-0.669 1.5-1.5v-1.5h-1.5-1-1.5z" fill="currentColor"/>
</svg>
